X:1
T: Work Song
K: Em
L: 1/4
|"Em7"z E/2E/2 G/2 A B/2-|B B/2A/2 B d-|d E/2E/2 G/2 A E/2-|E E/2D/2 (3E/2D/2B,/2-B,-|
B, E/2E/2 G/2 A B/2-|B B/2A/2 B d-|"Bm7"d B/2B/2 d/2 B ^d/2-|"B7"^d3 z|
"Em7"e/2d/2 B/2A/2G/2E/2|G G/2E/2 G A-|A E/2E/2 G/2 A E/2-|E E/2D/2 E E/2E/2|
"E7"_B/2 3B/2-B E/2E/2|"A7"_B/2 3A/2-A/2E/2G/2_B/2-|"F#7"_B/2 A G/2 "B7+" A/2G/2 (3E/2D/2E/2-|"Em"E3 z|]
